X:153 
T:O'Leary's Daughter* (slide) 
B:CRE5.079 (gan ainm)
F:file ID: cre.5/153olear_d
M:12/8
Q:180
R:jig
K:Em
a|b3 b2a b2a f2e|def a2f def a3|
b3 b2a b2a f2e|def a2f e3 e2:|
d|B2e e2f e2d B2A|B2d dBA B2d d3|
B2e e2f e2d B2A|def a2f f2e e2:|

%%%

